X:117
T:AIR L. Winchester Wedding.
O:england
B:Joseph Mitchell: "The Highland Fair" (1731)
M:9/8
L:1/8
K:Bb
B,|DEF GFE DCB,|DEF BG2 c2F|DEF GFE DEF|GAB cAF B2:|
g |fdB f2B c2G |cde GcB A2F|BGE GBG cAF|Ged c2B B2:|
